X: 1
T: Dunphy's
M: 4/4
L: 1/8
R: hornpipe
K: Gmaj
(3DEF|GABA GBdg|fefd e^cAG|FADA FGA2|BGAF GFED|
GABA g~g2z|fefd e^cAG|FAdB cADF|AGGF G2:|
|:B^c|d2Bd gdBd|gbaf gdBd|g2fg ed^cd|(3efe d^c d2ef|
g2dc B2Gd|ecAG FAD2|GBdB cADF|AGGF G2:|
